ui/StatusQ/src/assets/img/icons/emoji.svg

<svg fill="none" height="21" viewBox="0 0 21 21" width="21" xmlns="http://www.w3.org/2000/svg"><g fill="#4360df"><path d="m17.3761 0c.3797 0 .6875.307804.6875.6875v1.74167c0 .30375.2462.55.55.55h1.699c.3797 0 .6875.3078.6875.6875 0 .37969-.3078.6875-.6875.6875h-1.699c-.3038 0-.55.24624-.55.55v1.74166c0 .3797-.3078.6875-.6875.6875s-.6875-.3078-.6875-.6875v-1.74166c0-.30376-.2463-.55-.55-.55h-1.7866c-.3797 0-.6875-.30781-.6875-.6875 0-.3797.3078-.6875.6875-.6875h1.7866c.3037 0 .55-.24625.55-.55v-1.74167c0-.379696.3078-.6875.6875-.6875z"/><path d="m12.0914 2.7009c.0949-.29396-.0409-.64273-.3442-.70126-.5656-.10915-1.1497-.16631-1.7472-.16631-5.06257 0-9.166626 4.10406-9.166626 9.16667 0 5.0626 4.104056 9.1667 9.166626 9.1667 5.0627 0 9.1667-4.1041 9.1667-9.1667 0-.5222-.0437-1.03419-.1275-1.53254-.0534-.31706-.4233-.45705-.7263-.34951-.0583.0207-.1176.03932-.1778.05576-.275.07506-.4796.3405-.4359.62214.0609.39245.0925.79465.0925 1.20415 0 4.3032-3.4884 7.7917-7.7917 7.7917-4.30318 0-7.79163-3.4885-7.79163-7.7917 0-4.30322 3.48845-7.79167 7.79163-7.79167.4762 0 .9423.04271 1.3949.1245.294.05315.5761-.16642.6469-.45674.0145-.05925.031-.11767.0496-.17519z"/><g clip-rule="evenodd" fill-rule="evenodd"><path d="m4.40336 12.2118c.25049-.2876.64338-.441 1.0512-.3768.82016.1291 2.36622.3079 4.63854.3079 2.2723 0 3.8183-.1788 4.6385-.3079.4078-.0642.8007.0892 1.0512.3768.2591.2975.3603.7389.1701 1.1609-.581 1.2892-2.2 3.8119-5.8598 3.8119-3.65985 0-5.27886-2.5227-5.85983-3.8119-.19019-.422-.08907-.8634.17009-1.1609zm2.22016 1.153c-.3755-.0359-.63543.3609-.39978.6555.72377.9047 1.92583 1.7893 3.86936 1.7893 1.9435 0 3.1455-.8846 3.8693-1.7893.2357-.2946-.0243-.6914-.3998-.6555-.8878.085-2.0443.1531-3.4695.1531-1.42525 0-2.58179-.0681-3.46958-.1531z"/><path d="m5.5036 6.45233c.25793-.30952.71793-.35133 1.02744-.09341l2.50118 2.08432c.23595.19663.32348.51998.21892.80877s-.3788.48117-.68594.48117c-1.15664 0-2.84143.37452-3.78188.96252-.34162.2136-.79171.1098-1.00531-.2318-.21359-.3416-.10981-.79173.23181-1.00533.64263-.40179 1.4853-.70602 2.33527-.90549.1711-.04016.22708-.26066.09206-.37318l-.84015-.70013c-.30951-.25792-.35133-.71793-.0934-1.02744z"/><path d="m14.4965 6.45233c-.2579-.30952-.7179-.35133-1.0275-.09341l-2.5011 2.08432c-.236.19663-.3235.51998-.219.80877.1046.28879.3788.48117.686.48117 1.1566 0 2.8414.37452 3.7819.96252.3416.2136.7917.1098 1.0053-.2318s.1098-.79173-.2318-1.00533c-.6427-.40179-1.4853-.70602-2.3353-.90549-.1711-.04016-.2271-.26066-.0921-.37318l.8402-.70013c.3095-.25792.3513-.71793.0934-1.02744z"/></g></g></svg>

<svg width="21" height="21" viewBox="0 0 21 21" fill="none" xmlns="http://www.w3.org/2000/svg">
<path d="M17.3761 0C17.7558 0 18.0636 0.307804 18.0636 0.6875V2.42917C18.0636 2.73292 18.3098 2.97917 18.6136 2.97917H20.3126C20.6923 2.97917 21.0001 3.28697 21.0001 3.66667C21.0001 4.04636 20.6923 4.35417 20.3126 4.35417H18.6136C18.3098 4.35417 18.0636 4.60041 18.0636 4.90417V6.64583C18.0636 7.02553 17.7558 7.33333 17.3761 7.33333C16.9964 7.33333 16.6886 7.02553 16.6886 6.64583V4.90417C16.6886 4.60041 16.4423 4.35417 16.1386 4.35417H14.352C13.9723 4.35417 13.6645 4.04636 13.6645 3.66667C13.6645 3.28697 13.9723 2.97917 14.352 2.97917H16.1386C16.4423 2.97917 16.6886 2.73292 16.6886 2.42917V0.6875C16.6886 0.307804 16.9964 0 17.3761 0Z" fill="#4360DF"/>
<path d="M12.0914 2.7009C12.1863 2.40694 12.0505 2.05817 11.7472 1.99964C11.1816 1.89049 10.5975 1.83333 10 1.83333C4.93743 1.83333 0.833374 5.93739 0.833374 11C0.833374 16.0626 4.93743 20.1667 10 20.1667C15.0627 20.1667 19.1667 16.0626 19.1667 11C19.1667 10.4778 19.123 9.96581 19.0392 9.46746C18.9858 9.1504 18.6159 9.01041 18.3129 9.11795C18.2546 9.13865 18.1953 9.15727 18.1351 9.17371C17.8601 9.24877 17.6555 9.51421 17.6992 9.79585C17.7601 10.1883 17.7917 10.5905 17.7917 11C17.7917 15.3032 14.3033 18.7917 10 18.7917C5.69682 18.7917 2.20837 15.3032 2.20837 11C2.20837 6.69678 5.69682 3.20833 10 3.20833C10.4762 3.20833 10.9423 3.25104 11.3949 3.33283C11.6889 3.38598 11.971 3.16641 12.0418 2.87609C12.0563 2.81684 12.0728 2.75842 12.0914 2.7009Z" fill="#4360DF"/>
<path fill-rule="evenodd" clip-rule="evenodd" d="M4.40336 12.2118C4.65385 11.9242 5.04674 11.7708 5.45456 11.835C6.27472 11.9641 7.82078 12.1429 10.0931 12.1429C12.3654 12.1429 13.9114 11.9641 14.7316 11.835C15.1394 11.7708 15.5323 11.9242 15.7828 12.2118C16.0419 12.5093 16.1431 12.9507 15.9529 13.3727C15.3719 14.6619 13.7529 17.1846 10.0931 17.1846C6.43325 17.1846 4.81424 14.6619 4.23327 13.3727C4.04308 12.9507 4.1442 12.5093 4.40336 12.2118ZM6.62352 13.3648C6.24802 13.3289 5.98809 13.7257 6.22374 14.0203C6.94751 14.925 8.14957 15.8096 10.0931 15.8096C12.0366 15.8096 13.2386 14.925 13.9624 14.0203C14.1981 13.7257 13.9381 13.3289 13.5626 13.3648C12.6748 13.4498 11.5183 13.5179 10.0931 13.5179C8.66785 13.5179 7.51131 13.4498 6.62352 13.3648Z" fill="#4360DF"/>
<path fill-rule="evenodd" clip-rule="evenodd" d="M5.5036 6.45233C5.76153 6.14281 6.22153 6.101 6.53104 6.35892L9.03222 8.44324C9.26817 8.63987 9.3557 8.96322 9.25114 9.25201C9.14658 9.5408 8.87234 9.73318 8.5652 9.73318C7.40856 9.73318 5.72377 10.1077 4.78332 10.6957C4.4417 10.9093 3.99161 10.8055 3.77801 10.4639C3.56442 10.1223 3.6682 9.67217 4.00982 9.45857C4.65245 9.05678 5.49512 8.75255 6.34509 8.55308C6.51619 8.51292 6.57217 8.29242 6.43715 8.1799L5.597 7.47977C5.28749 7.22185 5.24567 6.76184 5.5036 6.45233Z" fill="#4360DF"/>
<path fill-rule="evenodd" clip-rule="evenodd" d="M14.4965 6.45233C14.2386 6.14281 13.7786 6.101 13.469 6.35892L10.9679 8.44324C10.7319 8.63987 10.6444 8.96322 10.7489 9.25201C10.8535 9.5408 11.1277 9.73318 11.4349 9.73318C12.5915 9.73318 14.2763 10.1077 15.2168 10.6957C15.5584 10.9093 16.0085 10.8055 16.2221 10.4639C16.4357 10.1223 16.3319 9.67217 15.9903 9.45857C15.3476 9.05678 14.505 8.75255 13.655 8.55308C13.4839 8.51292 13.4279 8.29242 13.5629 8.1799L14.4031 7.47977C14.7126 7.22185 14.7544 6.76184 14.4965 6.45233Z" fill="#4360DF"/>
</svg>
